assets/images/security/money-back.svg

<svg width="109" height="27" viewBox="0 0 109 27" fill="none" xmlns="http://www.w3.org/2000/svg">
<path d="M15.847 13.3082C15.847 12.7588 15.9203 12.3284 16.0668 12.0171C16.2499 11.6508 16.5399 11.4677 16.9367 11.4677C17.3335 11.4677 17.6235 11.6508 17.8066 12.0171C17.9592 12.3223 18.0355 12.7527 18.0355 13.3082C18.0355 13.8637 17.9592 14.2941 17.8066 14.5993C17.6235 14.9656 17.3335 15.1488 16.9367 15.1488C16.5399 15.1488 16.2499 14.9656 16.0668 14.5993C15.9203 14.288 15.847 13.8576 15.847 13.3082Z" fill="#222222"/>
<path d="M21.588 13.3082C21.588 12.7588 21.6612 12.3284 21.8077 12.0171C21.9909 11.6508 22.2808 11.4677 22.6776 11.4677C23.0744 11.4677 23.3644 11.6508 23.5475 12.0171C23.7002 12.3223 23.7765 12.7527 23.7765 13.3082C23.7765 13.8637 23.7002 14.2941 23.5475 14.5993C23.3644 14.9656 23.0744 15.1488 22.6776 15.1488C22.2808 15.1488 21.9909 14.9656 21.8077 14.5993C21.6612 14.288 21.588 13.8576 21.588 13.3082Z" fill="#222222"/>
<path d="M26.8751 12.1819C26.7714 12.072 26.7195 11.9255 26.7195 11.7424C26.7195 11.5715 26.7714 11.4311 26.8751 11.3212C26.985 11.2113 27.1193 11.1564 27.2781 11.1564C27.4368 11.1564 27.568 11.2113 27.6718 11.3212C27.7756 11.4311 27.8275 11.5715 27.8275 11.7424C27.8275 11.9194 27.7756 12.0659 27.6718 12.1819C27.568 12.2918 27.4368 12.3467 27.2781 12.3467C27.1132 12.3467 26.9789 12.2918 26.8751 12.1819Z" fill="#222222"/>
<path d="M31.0599 15.3136C30.9561 15.2037 30.9042 15.0572 30.9042 14.8741C30.9042 14.7031 30.9561 14.5627 31.0599 14.4528C31.1697 14.343 31.304 14.288 31.4628 14.288C31.6215 14.288 31.7527 14.343 31.8565 14.4528C31.9603 14.5627 32.0122 14.7031 32.0122 14.8741C32.0122 15.0511 31.9603 15.1976 31.8565 15.3136C31.7527 15.4235 31.6215 15.4784 31.4628 15.4784C31.2979 15.4784 31.1636 15.4235 31.0599 15.3136Z" fill="#222222"/>
<path fill-rule="evenodd" clip-rule="evenodd" d="M8.1229 5.30273C7.02111 5.30273 6.12793 6.19591 6.12793 7.2977V19.2675C6.12793 20.3693 7.02111 21.2625 8.1229 21.2625H36.0525C37.1542 21.2625 38.0474 20.3693 38.0474 19.2675V7.2977C38.0474 6.19591 37.1542 5.30273 36.0525 5.30273H8.1229ZM11.8485 16.2751H13.2862V10.3322H12.05C11.995 10.6436 11.818 10.9061 11.5189 11.1197C11.2259 11.3334 10.8626 11.4433 10.4292 11.4494V12.4108H11.8485V16.2751ZM14.4002 13.3082C14.4002 14.1812 14.5742 14.8802 14.9222 15.4052C15.38 16.0828 16.0515 16.4216 16.9367 16.4216C17.828 16.4216 18.5025 16.0828 18.9604 15.4052C19.3083 14.8802 19.4823 14.1812 19.4823 13.3082C19.4823 12.4353 19.3083 11.7363 18.9604 11.2113C18.5147 10.5337 17.8402 10.1949 16.9367 10.1949C16.0393 10.1949 15.3678 10.5337 14.9222 11.2113C14.5742 11.7363 14.4002 12.4353 14.4002 13.3082ZM20.1412 13.3082C20.1412 14.1812 20.3152 14.8802 20.6631 15.4052C21.121 16.0828 21.7925 16.4216 22.6776 16.4216C23.5689 16.4216 24.2435 16.0828 24.7013 15.4052C25.0493 14.8802 25.2233 14.1812 25.2233 13.3082C25.2233 12.4353 25.0493 11.7363 24.7013 11.2113C24.2557 10.5337 23.5811 10.1949 22.6776 10.1949C21.7803 10.1949 21.1088 10.5337 20.6631 11.2113C20.3152 11.7363 20.1412 12.4353 20.1412 13.3082ZM26.1884 10.671C25.8831 10.9641 25.7305 11.3212 25.7305 11.7424C25.7305 12.1697 25.8801 12.5299 26.1792 12.8229C26.4783 13.1159 26.8416 13.2624 27.2689 13.2624C27.7023 13.2624 28.0686 13.119 28.3677 12.8321C28.673 12.539 28.8256 12.1758 28.8256 11.7424C28.8256 11.3212 28.673 10.9641 28.3677 10.671C28.0625 10.3719 27.6993 10.2223 27.2781 10.2223C26.8568 10.2223 26.4936 10.3719 26.1884 10.671ZM30.3731 13.8027C30.0679 14.0957 29.9152 14.4528 29.9152 14.8741C29.9152 15.3014 30.0648 15.6615 30.3639 15.9546C30.6631 16.2476 31.0263 16.3941 31.4536 16.3941C31.887 16.3941 32.2533 16.2506 32.5524 15.9637C32.8577 15.6707 33.0103 15.3075 33.0103 14.8741C33.0103 14.4528 32.8577 14.0957 32.5524 13.8027C32.2472 13.5036 31.884 13.354 31.4628 13.354C31.0415 13.354 30.6783 13.5036 30.3731 13.8027ZM26.7103 16.2751H27.8824L32.0488 10.3322H30.8676L26.7103 16.2751Z" fill="#222222"/>
<path d="M43.1664 5.55211C43.1664 5.41438 43.278 5.30273 43.4157 5.30273C43.5535 5.30273 43.6651 5.41438 43.6651 5.55211V21.0131C43.6651 21.1508 43.5535 21.2625 43.4157 21.2625C43.278 21.2625 43.1664 21.1508 43.1664 21.0131V5.55211Z" fill="#222222"/>
<path d="M52.5911 19.6606H52.119L52.0751 19.2225C51.9908 19.3653 51.8577 19.487 51.676 19.5876C51.4943 19.685 51.2752 19.7336 51.0189 19.7336C50.5484 19.7336 50.1476 19.5714 49.8166 19.2469C49.4856 18.9191 49.3201 18.4811 49.3201 17.9326C49.3201 17.5692 49.4029 17.2479 49.5683 16.9689C49.7371 16.6898 49.9513 16.4821 50.2109 16.3458C50.4705 16.2063 50.7528 16.1365 51.0578 16.1365C51.457 16.1365 51.7912 16.2355 52.0605 16.4334C52.3331 16.6314 52.5181 16.8829 52.6154 17.1879L52.0654 17.3972C52.0038 17.1895 51.8853 17.0175 51.7101 16.8812C51.5348 16.745 51.3174 16.6768 51.0578 16.6768C50.7495 16.6768 50.4818 16.7855 50.2547 17.0029C50.0275 17.2204 49.9139 17.5303 49.9139 17.9326C49.9139 18.3318 50.0243 18.6433 50.2449 18.8672C50.4656 19.0879 50.7349 19.1982 51.053 19.1982C51.3645 19.1982 51.6014 19.1171 51.7636 18.9548C51.9291 18.7893 52.0216 18.6125 52.0411 18.4243H50.9021V17.9132H52.5911V19.6606Z" fill="#222222"/>
<path d="M55.7132 19.3978C55.4731 19.6217 55.1648 19.7336 54.7884 19.7336C54.412 19.7336 54.1037 19.6217 53.8636 19.3978C53.6234 19.1739 53.5034 18.8607 53.5034 18.4583V16.2095H54.0826V18.4243C54.0826 18.6644 54.1443 18.851 54.2676 18.984C54.3941 19.1138 54.5677 19.1787 54.7884 19.1787C55.0123 19.1787 55.1859 19.1138 55.3092 18.984C55.4325 18.8542 55.4942 18.6676 55.4942 18.4243V16.2095H56.0783V18.4583C56.0783 18.8607 55.9566 19.1739 55.7132 19.3978Z" fill="#222222"/>
<path d="M59.3313 19.6606L59.0052 18.7942H57.5449L57.2236 19.6606H56.6054L57.9489 16.2095H58.6255L59.9689 19.6606H59.3313ZM58.275 16.8423L57.7493 18.2539H58.8007L58.275 16.8423Z" fill="#222222"/>
<path d="M62.417 19.6606L61.6918 18.2977H61.2634V19.6606H60.6744V16.2095H61.9984C62.3229 16.2095 62.5841 16.3101 62.7821 16.5113C62.98 16.7093 63.079 16.9575 63.079 17.256C63.079 17.5027 63.0092 17.7136 62.8697 17.8888C62.7302 18.0641 62.5403 18.1809 62.3002 18.2393L63.079 19.6606H62.417ZM61.2634 17.7817H61.8913C62.0698 17.7817 62.2126 17.7347 62.3197 17.6406C62.43 17.5432 62.4852 17.4151 62.4852 17.256C62.4852 17.0938 62.43 16.9656 62.3197 16.8715C62.2126 16.7742 62.0698 16.7255 61.8913 16.7255H61.2634V17.7817Z" fill="#222222"/>
<path d="M66.2923 19.6606L65.9662 18.7942H64.5059L64.1846 19.6606H63.5665L64.9099 16.2095H65.5865L66.9299 19.6606H66.2923ZM65.236 16.8423L64.7103 18.2539H65.7617L65.236 16.8423Z" fill="#222222"/>
<path d="M70.5316 19.6606H69.9232L68.2195 17.0467V19.6606H67.6354V16.2095H68.3802L69.9475 18.6579V16.2095H70.5316V19.6606Z" fill="#222222"/>
<path d="M74.0784 16.7596H72.954V19.6606H72.3699V16.7596H71.2503V16.2095H74.0784V16.7596Z" fill="#222222"/>
<path d="M76.9328 19.6606H74.8008V16.2095H76.9328V16.7547H75.385V17.6698H76.7868V18.2004H75.385V19.1155H76.9328V19.6606Z" fill="#222222"/>
<path d="M80.0093 19.6606H77.8773V16.2095H80.0093V16.7547H78.4614V17.6698H79.8633V18.2004H78.4614V19.1155H80.0093V19.6606Z" fill="#222222"/>
<path d="M56.1344 13.6133H54.8982V9.86465L53.4226 13.6133H52.4017L50.9262 9.91251V13.6133H49.7298V7.95842H51.3728L52.9281 11.7789L54.4037 7.95842H56.1344V13.6133Z" fill="#222222"/>
<path d="M58.8305 9.51371C58.5062 9.80616 58.344 10.2289 58.344 10.7819C58.344 11.3349 58.5062 11.7576 58.8305 12.05C59.1602 12.3425 59.543 12.4887 59.979 12.4887C60.4151 12.4887 60.7952 12.3425 61.1196 12.05C61.4439 11.7576 61.6061 11.3349 61.6061 10.7819C61.6061 10.2289 61.4439 9.80616 61.1196 9.51371C60.7952 9.21595 60.4151 9.06706 59.979 9.06706C59.543 9.06706 59.1602 9.21595 58.8305 9.51371ZM57.0359 10.7899C57.0359 9.91251 57.3204 9.20265 57.8894 8.66029C58.4636 8.11262 59.1602 7.83878 59.979 7.83878C60.7979 7.83878 61.4918 8.11262 62.0607 8.66029C62.6297 9.20797 62.9142 9.91782 62.9142 10.7899C62.9142 11.6619 62.6297 12.3717 62.0607 12.9194C61.4918 13.4618 60.7979 13.7329 59.979 13.7329C59.1602 13.7329 58.4636 13.4618 57.8894 12.9194C57.3204 12.3717 57.0359 11.6619 57.0359 10.7899Z" fill="#222222"/>
<path d="M68.7253 13.6133H67.3934L65.0644 9.89655V13.6133H63.8122V7.95842H65.3436L67.4651 11.396V7.95842H68.7253V13.6133Z" fill="#222222"/>
<path d="M73.5312 13.6133H69.9421V7.95842H73.5232V9.14682H71.2023V10.2236H73.3079V11.3322H71.2023V12.4169H73.5312V13.6133Z" fill="#222222"/>
<path d="M76.0898 11.2525L74.1278 7.95842H75.6033L76.7598 10.0561L77.9323 7.95842H79.336L77.35 11.2525V13.6133H76.0898V11.2525Z" fill="#222222"/>
<path d="M81.9916 7.95842H84.1052C84.6528 7.95842 85.0835 8.09933 85.3972 8.38114C85.711 8.66295 85.8678 9.02718 85.8678 9.47383C85.8678 9.75565 85.7881 10.0082 85.6285 10.2315C85.4743 10.4549 85.2776 10.6064 85.0383 10.6862C85.3148 10.75 85.5514 10.9015 85.7482 11.1408C85.9449 11.3747 86.0433 11.6645 86.0433 12.0102C86.0433 12.4781 85.8785 12.8636 85.5488 13.1667C85.2244 13.4644 84.7991 13.6133 84.2726 13.6133H81.9916V7.95842ZM83.2198 10.2236H83.9058C84.1291 10.2236 84.3046 10.1704 84.4322 10.064C84.5651 9.95238 84.6316 9.80084 84.6316 9.60942C84.6316 9.42332 84.5678 9.2771 84.4401 9.17075C84.3125 9.05909 84.1291 9.00326 83.8898 9.00326H83.2198V10.2236ZM83.2198 12.5844H84.0094C84.254 12.5844 84.4455 12.5259 84.5837 12.409C84.722 12.2867 84.7911 12.1245 84.7911 11.9224C84.7911 11.7257 84.722 11.5662 84.5837 11.4439C84.4455 11.3216 84.254 11.2604 84.0094 11.2604H83.2198V12.5844Z" fill="#222222"/>
<path d="M90.5781 13.6133L90.1713 12.4648H87.9859L87.5791 13.6133H86.2551L88.3847 7.95842H89.8443L91.9499 13.6133H90.5781ZM89.0945 9.36217L88.4006 11.3163H89.7725L89.0945 9.36217Z" fill="#222222"/>
<path d="M94.9434 13.7329C94.1139 13.7329 93.4173 13.4618 92.8537 12.9194C92.29 12.3717 92.0082 11.6645 92.0082 10.7978C92.0082 9.93643 92.2927 9.22924 92.8616 8.67625C93.4306 8.11794 94.1192 7.83878 94.9274 7.83878C95.3315 7.83878 95.6957 7.89993 96.0201 8.02223C96.3498 8.13921 96.6156 8.29606 96.8177 8.4928C97.0197 8.68954 97.1819 8.89159 97.3042 9.09897C97.4265 9.30634 97.5116 9.52169 97.5594 9.74501L96.371 10.1199C96.3444 10.0082 96.3019 9.89921 96.2434 9.79287C96.1849 9.68121 96.1025 9.56954 95.9962 9.45788C95.8898 9.3409 95.7436 9.24785 95.5575 9.17873C95.3714 9.10428 95.1614 9.06706 94.9274 9.06706C94.502 9.06706 94.1272 9.21861 93.8028 9.52169C93.4785 9.81945 93.3163 10.2448 93.3163 10.7978C93.3163 11.3083 93.4758 11.7151 93.7948 12.0181C94.1139 12.3212 94.4967 12.4728 94.9434 12.4728C95.3794 12.4728 95.717 12.3638 95.9563 12.1457C96.1956 11.9277 96.3524 11.6831 96.4269 11.412L97.6312 11.7549C97.578 11.9729 97.4903 12.1883 97.368 12.401C97.251 12.6137 97.0889 12.8237 96.8815 13.0311C96.6794 13.2384 96.4083 13.4086 96.0679 13.5415C95.733 13.6691 95.3581 13.7329 94.9434 13.7329Z" fill="#222222"/>
<path d="M101.918 13.6133L100.395 11.388L99.7565 12.0979V13.6133H98.4963V7.95842H99.7565V10.3352L101.822 7.95842H103.481L101.28 10.407L103.489 13.6133H101.918Z" fill="#222222"/>
<rect x="1.47665" y="0.651574" width="106.664" height="25.2623" rx="2.49371" stroke="#222222" stroke-width="0.997484"/>
</svg>

<svg width="109" height="27" fill="none" xmlns="http://www.w3.org/2000/svg"><path d="M15.847 13.308c0-.55.073-.98.22-1.29.183-.367.473-.55.87-.55.396 0 .686.183.87.55.152.304.229.735.229 1.29 0 .556-.077.986-.23 1.291-.183.367-.473.55-.87.55-.396 0-.686-.183-.87-.55-.146-.311-.219-.741-.219-1.29zm5.741 0c0-.55.073-.98.22-1.29.183-.367.473-.55.87-.55.396 0 .686.183.87.55.152.304.229.735.229 1.29 0 .556-.077.986-.23 1.291-.183.367-.473.55-.87.55-.396 0-.686-.183-.87-.55-.146-.311-.219-.741-.219-1.29zm5.287-1.126a.614.614 0 0 1-.155-.44.59.59 0 0 1 .155-.42.548.548 0 0 1 .403-.166c.159 0 .29.055.394.165.104.11.155.25.155.421a.634.634 0 0 1-.155.44.518.518 0 0 1-.394.165.53.53 0 0 1-.403-.165zm4.185 3.132a.614.614 0 0 1-.156-.44c0-.17.052-.311.156-.421a.548.548 0 0 1 .403-.165c.159 0 .29.055.393.165.104.11.156.25.156.421a.634.634 0 0 1-.155.44.518.518 0 0 1-.394.164.529.529 0 0 1-.403-.164z" fill="#222"/><path fill-rule="evenodd" clip-rule="evenodd" d="M8.123 5.303a1.995 1.995 0 0 0-1.995 1.995v11.97c0 1.101.893 1.994 1.995 1.994h27.93a1.995 1.995 0 0 0 1.994-1.995V7.297a1.995 1.995 0 0 0-1.994-1.994H8.123zm3.726 10.972h1.437v-5.943H12.05c-.055.312-.232.574-.531.788-.293.213-.656.323-1.09.33v.96h1.42v3.865zm2.551-2.967c0 .873.174 1.572.522 2.097.458.678 1.13 1.017 2.015 1.017.891 0 1.566-.34 2.023-1.017.348-.525.522-1.224.522-2.097s-.174-1.572-.522-2.097c-.445-.677-1.12-1.016-2.023-1.016-.898 0-1.57.339-2.015 1.016-.348.525-.522 1.224-.522 2.097zm5.741 0c0 .873.174 1.572.522 2.097.458.678 1.13 1.017 2.015 1.017.89 0 1.566-.34 2.023-1.017.348-.525.522-1.224.522-2.097s-.174-1.572-.522-2.097c-.445-.677-1.12-1.016-2.023-1.016-.898 0-1.57.339-2.015 1.016-.348.525-.522 1.224-.522 2.097zm6.047-2.637c-.305.293-.457.65-.457 1.071 0 .428.15.788.448 1.08.3.294.663.44 1.09.44.433 0 .8-.143 1.099-.43a1.45 1.45 0 0 0 .458-1.09c0-.42-.153-.778-.458-1.071a1.503 1.503 0 0 0-1.09-.449c-.421 0-.784.15-1.09.449zm4.185 3.132c-.305.293-.458.65-.458 1.071 0 .427.15.787.449 1.08.3.294.662.44 1.09.44.433 0 .8-.143 1.098-.43a1.45 1.45 0 0 0 .458-1.09c0-.421-.152-.778-.458-1.071a1.503 1.503 0 0 0-1.09-.449c-.42 0-.784.15-1.089.449zm-3.663 2.472h1.172l4.167-5.943h-1.181l-4.158 5.943z" fill="#222"/><path d="M43.166 5.552a.25.25 0 1 1 .5 0v15.461a.25.25 0 1 1-.5 0V5.553zm9.425 14.109h-.472l-.044-.439a1.021 1.021 0 0 1-.399.366c-.182.097-.4.146-.657.146-.47 0-.871-.163-1.202-.487-.331-.328-.497-.766-.497-1.314 0-.364.083-.685.248-.964.17-.28.383-.487.643-.623.26-.14.542-.21.847-.21.399 0 .733.1 1.002.297.273.198.458.45.555.755l-.55.21a1.001 1.001 0 0 0-1.007-.721c-.309 0-.576.108-.803.326-.227.217-.341.527-.341.93 0 .399.11.71.33.934.222.22.49.331.809.331.312 0 .548-.08.71-.243.166-.166.259-.342.278-.53h-1.139v-.512h1.69v1.748zm3.122-.263c-.24.224-.548.336-.925.336-.376 0-.684-.112-.924-.336-.24-.224-.36-.537-.36-.94V16.21h.579v2.214c0 .24.061.427.185.56.126.13.3.195.52.195.224 0 .398-.065.521-.195s.185-.316.185-.56V16.21h.584v2.25c0 .402-.121.715-.365.939zm3.618.263l-.326-.867h-1.46l-.321.867h-.619l1.344-3.452h.677l1.343 3.452h-.638zm-1.056-2.819l-.526 1.412h1.052l-.526-1.412zm4.142 2.819l-.725-1.363h-.429v1.363h-.589v-3.452h1.324c.325 0 .586.101.784.302.198.198.297.447.297.745 0 .247-.07.458-.21.633-.139.175-.329.292-.569.35l.779 1.422h-.662zm-1.154-1.88h.628a.626.626 0 0 0 .429-.14.488.488 0 0 0 .165-.385.48.48 0 0 0-.165-.384.613.613 0 0 0-.429-.146h-.628v1.056zm5.03 1.88l-.327-.867h-1.46l-.321.867h-.619l1.344-3.452h.677l1.343 3.452h-.638zm-1.057-2.819l-.526 1.412h1.052l-.526-1.412zm5.296 2.819h-.609l-1.704-2.614v2.614h-.584v-3.452h.745l1.568 2.449v-2.449h.584v3.452zm3.546-2.901h-1.124v2.9h-.584v-2.9h-1.12v-.55h2.828v.55zm2.855 2.9H74.8v-3.45h2.132v.545h-1.548v.915h1.402v.53h-1.402v.916h1.548v.545zm3.076 0h-2.132v-3.45h2.132v.545h-1.548v.915h1.402v.53h-1.402v.916h1.548v.545zm-23.875-6.047h-1.236V9.865l-1.475 3.748h-1.021l-1.476-3.7v3.7H49.73V7.958h1.643l1.555 3.82 1.476-3.82h1.73v5.655zm2.697-4.1c-.325.293-.487.716-.487 1.269 0 .553.162.976.486 1.268.33.292.713.439 1.149.439.436 0 .816-.147 1.14-.439.325-.292.487-.715.487-1.268s-.162-.976-.486-1.268a1.632 1.632 0 0 0-1.141-.447 1.66 1.66 0 0 0-1.148.447zm-1.795 1.277c0-.877.284-1.587.853-2.13.575-.547 1.271-.821 2.09-.821s1.513.274 2.082.821c.569.548.853 1.258.853 2.13 0 .872-.284 1.582-.853 2.13-.57.542-1.263.813-2.082.813s-1.515-.271-2.09-.814c-.569-.547-.853-1.257-.853-2.13zm11.69 2.823h-1.333l-2.329-3.716v3.716h-1.252V7.958h1.532l2.121 3.438V7.958h1.26v5.655zm4.805 0h-3.589V7.958h3.581v1.189h-2.32v1.077h2.105v1.108h-2.106v1.085h2.33v1.196zm2.559-2.36l-1.962-3.295h1.475l1.157 2.098 1.172-2.098h1.404l-1.986 3.294v2.361h-1.26v-2.36zm5.902-3.295h2.113c.548 0 .978.141 1.292.423.314.282.47.646.47 1.093 0 .282-.079.534-.239.758-.154.223-.35.374-.59.454.277.064.513.216.71.455.197.234.295.524.295.87 0 .467-.165.853-.494 1.156-.325.297-.75.446-1.276.446h-2.281V7.958zm1.228 2.266h.686c.223 0 .399-.054.526-.16a.563.563 0 0 0 .2-.455.54.54 0 0 0-.192-.438c-.127-.112-.31-.168-.55-.168h-.67v1.22zm0 2.36h.79c.244 0 .435-.058.574-.175a.618.618 0 0 0 .207-.487.609.609 0 0 0-.207-.478c-.139-.122-.33-.184-.575-.184h-.79v1.324zm7.358 1.03l-.407-1.15h-2.185l-.407 1.15h-1.324l2.13-5.656h1.46l2.105 5.655h-1.372zm-1.484-4.252l-.693 1.954h1.371l-.678-1.954zm5.85 4.37c-.83 0-1.527-.27-2.09-.813-.564-.547-.846-1.255-.846-2.121 0-.862.285-1.569.854-2.122a2.841 2.841 0 0 1 2.065-.837c.404 0 .769.06 1.093.183.33.117.596.274.798.47.202.198.364.4.486.607.123.207.208.423.255.646l-1.188.375a1.303 1.303 0 0 0-.128-.327 1.505 1.505 0 0 0-.247-.335 1.096 1.096 0 0 0-.438-.28 1.684 1.684 0 0 0-.63-.11c-.426 0-.8.15-1.125.454-.325.297-.487.723-.487 1.276 0 .51.16.917.479 1.22.319.303.702.455 1.148.455.436 0 .774-.11 1.013-.327.24-.218.396-.463.47-.734l1.205.343a2.47 2.47 0 0 1-.263.646c-.117.213-.28.423-.486.63a2.27 2.27 0 0 1-.814.51c-.335.128-.71.192-1.125.192zm6.974-.119l-1.523-2.225-.638.71v1.515h-1.26V7.958h1.26v2.377l2.065-2.377h1.659l-2.201 2.449 2.209 3.206h-1.571z" fill="#222"/><rect x="1.477" y=".652" width="106.664" height="25.262" rx="2.494" stroke="#222" stroke-width=".997"/></svg>
